!!!!SEGMENT: pl-cz--iii-271--001-002_gotschalk-filip--vesperae-confitebor.krn
!!!cenid: 18xx:132
!!!COM: Gotschalk, Filip
!!!COM-rismID: pe30020320
!!!CDT: 1760-1809
!!!CNT:
!!!OPR: Vesperae
!!!OTL: Confitebor
!!!OMV: 002
!!!PDT:
!!!AGN: Sacred; Vespers
!!!YEC: Copyright 2022 Narodowy Instytut Fryderyka Chopina (https://polishscores.org)
!!!YEM: License CC-BY-4.0 (https://creativecommons.org/licenses/by/4.0)
!!!SMS-siglum: PL-CZ
!!!SMS-shelfmark: III-271
!!!SMS-shelfwork: 001-002 M
!!!NIFC-rismSourceID: 300000386
!!!NIFC-rismChildID: 300000386
!!!NIFC-islandoraID: pl-cz:36995
!!!URL-pdf-islandora: https://repozytorium.nifc.pl/islandora/object/pl-cz%3A36995/datastream/PDF/view
!!!URL-scan: https://polish.musicsources.pl/pl/lokalizacje/galeria/rekopisy/6883/1 @EN{Scan on Polish Music Sources Website} @PL{Skany w portalu Dziedzictwo Muzyki Polskiej w otwartym dostępie}
!!!IIIF:
!!!ONB-nifc:
!!!AIN: 1 bass 2 empty 1 organ 2 violn 1 vox
!!!key:
**kern	**fba	**dynam	**kern	**dynam	**kern	**dynam	**kern	**text	**text	**kern	**text	**text	**kern	**kern
*part7	*	*	*part6	*	*part5	*	*part4	*	*	*part3	*	*	*part2	*part1
*staff7	*	*	*staff6	*	*staff5	*	*staff4	*	*	*staff3	*	*	*staff2	*staff1
*Iorgan	*	*	*Ivioln	*	*Ivioln	*	*Ibass	*	*	*Ivox	*	*	*Iempty	*Iempty
*I"Organo	*	*	*I"Violino Secondo	*	*I"Violino Primo	*	*I"Basso	*	*	*I"Canto	*	*	*I"Clarino Secondo in C	*I"Clarino Primo in C
*I'Org	*	*	*I'Vn II	*	*I'Vn I	*	*I'B	*	*	*I'C	*	*	*I'Clno II	*I'Clno I
*clefF4	*	*	*clefG2	*	*clefG2	*	*clefF4	*	*	*clefC1	*	*	*clefG2	*clefG2
*Trd0c0	*	*	*	*	*	*	*	*	*	*	*	*	*	*
*k[]	*	*	*k[]	*	*k[]	*	*k[]	*	*	*k[]	*	*	*k[]	*k[]
*C:	*	*	*C:	*	*C:	*	*C:	*	*	*C:	*	*	*C:	*C:
*M3/8	*	*	*M3/8	*	*M3/8	*	*M3/8	*	*	*M3/8	*	*	*M3/8	*M3/8
=1	=1	=1	=1	=1	=1	=1	=1	=1	=1	=1	=1	=1	=1	=1
!	!	!	!	!	!LO:TX:t=P:problem=f zapisane jako for	!	!	!	!	!	!	!	!	!
!LO:TX:a:t=Moderato	!	!	!LO:TX:a:t=Moderato	!	!LO:TX:a:t=Moderato	!LO:DY:b	!	!	!	!	!	!	!LO:TX:a:t=Moderato	!LO:TX:a:t=Moderato Allegro
4C/	.	.	8c/L	.	8c/L	f	4.r	.	.	8c/L	Con-	Lae-	8c/L	8c/L
.	.	.	16e/L	.	16e/L	.	.	.	.	8e/J	.	-ta-	8e/	8e/
.	.	.	16c/	.	16c/	.	.	.	.	.	.	.	.	.
8r	.	.	16g/	.	16g/	.	.	.	.	8g/	-fi-	-tus	8g/J	8g/J
.	.	.	16e/JJ	.	16e/JJ	.	.	.	.	.	.	.	.	.
=2	=2	=2	=2	=2	=2	=2	=2	=2	=2	=2	=2	=2	=2	=2
!LO:TX:t=P:problem=mixed beam	!	!	!	!	!	!	!	!	!	!	!	!	!	!
8CL\	.	.	4G/ 4e/	.	4cc\	.	8C/	Con-	Lae-	4cc\	-te-	sum	4e/	4cc\
16EL\	.	.	.	.	.	.	8E/	-fes-	-ta-	.	.	.	.	.
16C\	.	.	.	.	.	.	.	.	.	.	.	.	.	.
.	.	.	8qg/	.	8qee/	.	.	.	.	.	.	.	.	.
16G\	.	.	16f/LL	.	16dd\LL	.	16G\LL	-si-	-tus	8dd\	-bor	in	8r	8r
16GGJJ/	.	.	32e/L	.	32cc\L	.	32A\L	.	.	.	.	.	.	.
.	.	.	32f/JJJ	.	32dd\JJJ	.	32B\JJJ	.	.	.	.	.	.	.
=3	=3	=3	=3	=3	=3	=3	=3	=3	=3	=3	=3	=3	=3	=3
4c\	.	.	8g/L	.	(>8ee\L	.	4c\	-o	sum	16ee\	ti-	his	4.r	4.r
.	.	.	.	.	.	.	.	.	.	16ee\	-bi	quae	.	.
.	.	.	8a/	.	8ff\)	.	.	.	.	8ff\	Do-	dic-	.	.
8G\	.	.	8G/J 8f/	.	8dd\`J	.	8r	.	.	8dd\	-mi-	.	.	.
=4	=4	=4	=4	=4	=4	=4	=4	=4	=4	=4	=4	=4	=4	=4
!	!	!	!	!	!	!	!LO:N:vis=0	!	!	!	!	!	!LO:TX:t=P:problem=mixed beam	!LO:TX:t=P:problem=mixed beam
16r	.	.	4G/ 4e/	.	4cc\	.	2.r	.	.	4cc\	-ne	-ta	8ccL\	8ccL\
16c\LL	.	.	.	.	.	.	.	.	.	.	.	.	.	.
!	!	!	!	!	!	!	!LO:TX:a:t=2	!	!	!	!	!	!	!
16G\	.	.	.	.	.	.	.	.	.	.	.	.	8g/	8g/
16E\J	.	.	.	.	.	.	.	.	.	.	.	.	.	.
8C/J	.	.	8r	.	8r	.	.	.	.	8r	.	.	8eJ/	8eJ/
=5	=5	=5	=5	=5	=5	=5	=5	=5	=5	=5	=5	=5	=5	=5
4c\	.	.	8e/L	.	8e/L	.	.	.	.	16e/LL	in	dic-	4c/	4c/
.	.	.	.	.	.	.	.	.	.	16g\JJ	.	.	.	.
.	.	.	16e/L	.	16g/L	.	.	.	.	16a\LL	to-	-ta	.	.
.	.	.	16c/	.	16e/	.	.	.	.	16b\JJ	.	.	.	.
8r	.	.	16g/	.	16cc\	.	.	.	.	16cc\LL	-to	sunt	8r	8r
.	.	.	16e/JJ	.	16g/JJ	.	.	.	.	16dd\JJ	.	.	.	.
=6	=6	=6	=6	=6	=6	=6	=6	=6	=6	=6	=6	=6	=6	=6
!	!	!	!	!	!	!	!	!	!	!	!	!	!LO:N:vis=0	!LO:N:vis=0
16c\LL	.	.	4cc\	.	4ee\	.	16C/	et	in	4ee\	cor-	mi-	2.r	2.r
16B\	.	.	.	.	.	.	16E/	mag-	his	.	.	.	.	.
16c\	.	.	.	.	.	.	16F\	-ni-	quae	.	.	.	.	.
16B\	.	.	.	.	.	.	16G\	-fi-	dic-	.	.	.	.	.
!	!	!	!	!	!	!	!	!	!	!	!	!	!LO:TX:a:t=2	!
.	.	.	8qqee/	.	8qgg/	.	.	.	.	.	.	.	.	.
16c\	.	.	16dd\LL	.	16ff\LL	.	16A\	-cen-	-ta	8dd\	-de	-hi	.	.
16B\JJ	.	.	32cc\L	.	32ee\L	.	16B\	-ti-	sunt	.	.	.	.	.
.	.	.	32dd\JJJ	.	32ff\JJJ	.	.	.	.	.	.	.	.	.
=7	=7	=7	=7	=7	=7	=7	=7	=7	=7	=7	=7	=7	=7	=7
!!pagebreak:original
!	!	!	!LO:PB:g=original	!	!	!	!	!	!	!	!	!	!	!
4c\	.	.	8ee\L	.	(>8gg\L	.	8c\	-a	mi-	8ee\L	me-	mi-	.	.
.	.	.	8ff\	.	8aa\)	.	8c\	o-	-hi:	8ff\	.	.	.	.
8G\	.	.	8dd\J	.	8ff\`J	.	8G\	-pus	in	8dd\J	.	.	.	.
=8	=8	=8	=8	=8	=8	=8	=8	=8	=8	=8	=8	=8	=8	=8
!LO:PB:g=original	!	!	!	!	!	!	!	!	!	!	!	!	!LO:TX:t=P:problem=mixed beam	!LO:TX:t=P:problem=mixed beam
16r	.	.	4cc\	.	4cc\ 4ee\	.	8c\	e-	do-	4cc\	-o:	-hi:	8ccL\	8eeL\
16c\LL	.	.	.	.	.	.	.	.	.	.	.	.	.	.
16G\	.	.	.	.	.	.	8C/	-jus:	-mum	.	.	.	8g/	8cc\
16c\	.	.	.	.	.	.	.	.	.	.	.	.	.	.
16E\	.	.	8r	.	8r	.	8r	.	.	8r	.	.	8eJ/	8gJ/
16G\JJ	.	.	.	.	.	.	.	.	.	.	.	.	.	.
=9	=9	=9	=9	=9	=9	=9	=9	=9	=9	=9	=9	=9	=9	=9
!	!	!	!	!	!LO:PB:g=original	!	!	!	!	!LO:PB:g=original	!	!	!	!
!	!	!	!	!	!	!	!	!	!	!	!	!	!LO:TX:t=P:problem=mixed beam	!LO:TX:t=P:problem=mixed beam
8C/L	.	.	8cc\L	.	8g\L 8ee\	.	4c\	et	do-	16ee\	in	et	8cL/	8eL/
.	.	.	.	.	.	.	.	.	.	16ee\	con-	et	.	.
16E\L	.	.	8cc\	.	8g\ 8ee\	.	.	.	.	8ee\	-si-	do-	8cc\	8ee\
16C/	.	.	.	.	.	.	.	.	.	.	.	.	.	.
16G\	.	.	8cc\J	.	8g\J 8ee\	.	8c\	jus-	-mum	8ee\	-li-	-mum	8ccJ\	8eeJ\
16E\JJ	.	.	.	.	.	.	.	.	.	.	.	.	.	.
=10	=10	=10	=10	=10	=10	=10	=10	=10	=10	=10	=10	=10	=10	=10
!	!	!	!	!	!	!	!	!	!	!	!	!	!	!LO:PB:g=original
16C/LL	.	.	4.cc\	.	4.g\ 4.ee\	.	16c\	-ti-	Do-	4ee\	-o	do-	4.cc\	4.ee\
32D\L	.	.	.	.	.	.	16c\	-ti-	-mi-	.	.	.	.	.
32E\JJJ	.	.	.	.	.	.	.	.	.	.	.	.	.	.
32F\LLL	.	.	.	.	.	.	4c\	-a	-ni	.	.	.	.	.
32G\	.	.	.	.	.	.	.	.	.	.	.	.	.	.
32A\	.	.	.	.	.	.	.	.	.	.	.	.	.	.
32B\JJJ	.	.	.	.	.	.	.	.	.	.	.	.	.	.
8c\	.	.	.	.	.	.	.	.	.	8ee\	jus-	-mum	.	.
=11	=11	=11	=11	=11	=11	=11	=11	=11	=11	=11	=11	=11	=11	=11
!	!	!	!	!	!	!	!	!	!	!	!	!	!LO:PB:g=original	!
*	*	*	*	*	*tremolo	*	*	*	*	*	*	*	*	*
16r	7	.	16dd\LL	.	8g\L 8ff\	.	4d\	et	do-	4.ff\	-to-	do-	8dd\L	8ff\L
16G\LL	.	.	16b\	.	.	.	.	.	.	.	.	.	.	.
(16B\	.	.	16dd\	.	8g\ 8ff\	.	.	.	.	.	.	.	8dd\	8ff\
16G\	.	.	16b\	.	.	.	.	.	.	.	.	.	.	.
16d\)	.	.	16dd\	.	8g\J 8ff\	.	8d\	jus-	-mum	.	.	.	8dd\J	8ff\J
16B\JJ	.	.	16b\JJ	.	.	.	.	.	.	.	.	.	.	.
*	*	*	*	*	*Xtremolo	*	*	*	*	*	*	*	*	*
=12	=12	=12	=12	=12	=12	=12	=12	=12	=12	=12	=12	=12	=12	=12
16G\LL	.	.	4.g/ 4.dd/	.	4.g\ 4.ff\	.	16d\	-ti-	Do-	4.ff\	-rum	-mum	4.dd\	4.ff\
32A\L	.	.	.	.	.	.	16d\	-ti-	-mi-	.	.	.	.	.
32B\JJJ	.	.	.	.	.	.	.	.	.	.	.	.	.	.
32c\LLL	.	.	.	.	.	.	4d\	-a	-ni	.	.	.	.	.
32d\	.	.	.	.	.	.	.	.	.	.	.	.	.	.
32e\	.	.	.	.	.	.	.	.	.	.	.	.	.	.
32f#X\JJJ	.	.	.	.	.	.	.	.	.	.	.	.	.	.
8g\	.	.	.	.	.	.	.	.	.	.	.	.	.	.
=13	=13	=13	=13	=13	=13	=13	=13	=13	=13	=13	=13	=13	=13	=13
!!pagebreak:original
16r	.	.	16ccLL\	.	(>16ee\LL	.	8C/	ma-	i-	8ee\	et	i-	8cc\L	8ee\L
16C/LL	.	.	16g/	.	16g/)	.	.	.	.	.	.	.	.	.
16E\	.	.	16cc\	.	(>16ee\	.	8E/	-net	-bi-	16ee\	con-	-bi-	8g/	8cc\
16C/	.	.	16g/	.	16g/)	.	.	.	.	16ee\	-gre-	-mus.	.	.
16G\	.	.	16cc\	.	(>16ee\	.	8G\	in	-mus	16ee\	-ga-	Stan-	8cc\J	8ee\J
16E\JJ	.	.	16g/JJ	.	16g/JJ)	.	.	.	.	16ee\	-ti-	-tes	.	.
=14	=14	=14	=14	=14	=14	=14	=14	=14	=14	=14	=14	=14	=14	=14
16C/LL	.	.	4.g\ 4.cc\	.	4.g\ 4.ee\	.	16c\	sae-	i-	4ee\	-o-	{Stan-	4.cc\	4.ee\
32D\L	.	.	.	.	.	.	16c\	-cu-	-bi-	.	.	.	.	.
32E\JJJ	.	.	.	.	.	.	.	.	.	.	.	.	.	.
32F\LLL	.	.	.	.	.	.	8c\	-lum	-mus	.	.	.	.	.
32G\	.	.	.	.	.	.	.	.	.	.	.	.	.	.
32A\	.	.	.	.	.	.	.	.	.	.	.	.	.	.
32B\JJJ	.	.	.	.	.	.	.	.	.	.	.	.	.	.
8c\	.	.	.	.	.	.	8r	.	.	8ee\	-ne	-tes}	.	.
=15	=15	=15	=15	=15	=15	=15	=15	=15	=15	=15	=15	=15	=15	=15
!	!	!	!	!	!LO:TX:t=P:problem=mixed beam	!	!	!	!	!	!	!	!	!
16r	.	.	16dd\LL	.	(>16ff\LL	.	8G\	sae-	Do-	8ff\	et	e-	8dd\L	8ff\L
16G\LL	.	.	16b\	.	16g/)	.	.	.	.	.	.	.	.	.
16B\	.	.	16g/	.	(>16ff\	.	8B\	-cu-	-mi-	16ff\	con-	.	8f/	8dd\
16G\	.	.	16b\	.	16g/)	.	.	.	.	16ff\	-gre-	-rant	.	.
16d\	.	.	16dd\	.	(>16ff\	.	8d\	-li	-ni	16ff\	-ga-	pe-	8dd\J	8ff\J
16B\JJ	.	.	16b\JJ	.	16g/JJ)	.	.	.	.	16ff\	-ti-	-des	.	.
=16	=16	=16	=16	=16	=16	=16	=16	=16	=16	=16	=16	=16	=16	=16
!	!	!	!	!	!	!	!LO:LB:g=original	!	!	!	!	!	!	!
16G\LL	.	.	4.g/ 4.dd/	.	4.g\ 4.ff\	.	16d\	sae-	i-	4ff\	-o-	nos-	4.dd\	4.ff\
32A\L	.	.	.	.	.	.	16d\	-cu-	-bi-	.	.	.	.	.
32B\JJJ	.	.	.	.	.	.	.	.	.	.	.	.	.	.
32c\LLL	.	.	.	.	.	.	4d\	-li.	-mus	.	.	.	.	.
32d\	.	.	.	.	.	.	.	.	.	.	.	.	.	.
32e\	.	.	.	.	.	.	.	.	.	.	.	.	.	.
32f#X\JJJ	.	.	.	.	.	.	.	.	.	.	.	.	.	.
8g\	.	.	.	.	.	.	.	.	.	8ff\	-ne.	-tri,	.	.
=17	=17	=17	=17	=17	=17	=17	=17	=17	=17	=17	=17	=17	=17	=17
!LO:PB:g=original	!	!	!	!	!	!	!	!	!	!LO:PB:g=original	!	!	!	!
8r	.	.	8r	.	16ee\LL	.	8r	.	.	8ee\	Fi-	in	4cc\	4ee\
.	.	.	.	.	16g/	.	.	.	.	.	.	.	.	.
8c\L	.	.	8g/L	.	16cc\	.	8c\	Me-	Stan-	16ee\	-de-	a-	.	.
.	.	.	.	.	16ee\J	.	.	.	.	16ee\	-li-	-tri-	.	.
8c\J	.	.	8g/J	.	8ee\J	.	8c\	-mor	-tes	8ee\	-a	-is	8r	8r
=18	=18	=18	=18	=18	=18	=18	=18	=18	=18	=18	=18	=18	=18	=18
!	!	!	!	!	!	!	!	!	!	!	!	!	!LO:N:vis=0	!LO:N:vis=0
8r	.	.	8r	.	16ff#X\LL	.	8A\	e-	e-	8ff#X\	om-	tu-	2.r	2.r
.	.	.	.	.	16a/	.	.	.	.	.	.	.	.	.
8c\L	4 2	.	8a/L	.	16dd\	.	8A\	-rit	-rant	8ff#\	-ni-	-is	.	.
!	!	!	!	!	!	!	!	!	!	!	!	!	!LO:TX:a:t=3	!LO:TX:a:t=3
.	.	.	.	.	16ff#\J	.	.	.	.	.	.	.	.	.
8c\J	.	.	8a/J	.	8ff#\J	.	8A\	in	pe-	8ff#\	-a	in	.	.
=19	=19	=19	=19	=19	=19	=19	=19	=19	=19	=19	=19	=19	=19	=19
!!pagebreak:original
!	!	!	!LO:PB:g=original	!	!	!	!	!	!	!	!	!	!	!
8r	.	.	8r	.	16gg\LL	.	8.B\	sae-	.	8dd\	man-	a-	.	.
.	.	.	.	.	16b\	.	.	.	.	.	.	.	.	.
8B\L	6	.	8dd\L	.	16dd\	.	.	.	.	8dd\	-da-	-tri-	.	.
.	.	.	.	.	16gg\J	.	16B\	-cu-	-des	.	.	.	.	.
8B\J	.	.	8dd\J	.	8gg\J	.	8B\	-lum	nos-	8dd\	-ta	-is	.	.
=20	=20	=20	=20	=20	=20	=20	=20	=20	=20	=20	=20	=20	=20	=20
8r	.	.	8r	.	16aa\LL	.	16F#X\	tes-	-tri,	8dd\	e-	tu-	4.r	4.r
.	.	.	.	.	16dd\	.	16F#\	-ta-	in	.	.	.	.	.
8F#X\L	6	.	8dd\L	.	16ff#X\	.	8F#\	-men-	a-	8dd\	-jus:	-is.	.	.
.	.	.	.	.	16aa\J	.	.	.	.	.	.	.	.	.
8F#\J	.	.	8dd\J	.	8aa\J	.	8F#\	-ti	-triis	8r	.	.	.	.
=21	=21	=21	=21	=21	=21	=21	=21	=21	=21	=21	=21	=21	=21	=21
!	!	!	!	!	!LO:PB:g=original	!	!	!	!	!	!	!	!	!
16r	.	.	8gg\L	.	8dd\L 8bb\	.	8G\	su-	tu-	16b\	con-	Je-	8r	8r
16G\LL	.	.	.	.	.	.	.	.	.	16b\	-fir-	-ru-	.	.
16B\	.	.	8gg\	.	8dd\ 8bb\	.	8G\	-i:	-is	8b\	-ma-	-sa-	8g/L	8dd\L
16G\	.	.	.	.	.	.	.	.	.	.	.	.	.	.
16d\	.	.	8gg\J	.	8dd\J 8bb\	.	8r	.	.	16b\	-ta	-lem,	8g/J	8dd\J
16B\JJ	.	.	.	.	.	.	.	.	.	16b\	in	quae	.	.
=22	=22	=22	=22	=22	=22	=22	=22	=22	=22	=22	=22	=22	=22	=22
!LO:TX:t=P:problem=mixed beam	!	!	!	!	!	!	!	!	!	!	!	!	!	!
16GLL\	.	.	4.gg\	.	4.dd\ 4.bb\	.	8G\	vir-	tu-	8.b\	sae-	ae-	4.g/	4.dd\
16GG/	.	.	.	.	.	.	.	.	.	.	.	.	.	.
16BB/	.	.	.	.	.	.	8G\	-tu-	-is	.	.	.	.	.
16DJ/	.	.	.	.	.	.	.	.	.	16b\	-cu-	-di-	.	.
8GJ/	.	.	.	.	.	.	8G\	-tem	Je-	8b\	-lum	-fi-	.	.
=23	=23	=23	=23	=23	=23	=23	=23	=23	=23	=23	=23	=23	=23	=23
!	!	!	!	!	!	!	!LO:PB:g=original	!	!	!	!	!	!	!
*	*	*	*	*	*tremolo	*	*	*	*	*	*	*	*	*
!	!	!	!	!	!	!	!	!	!	!	!	!	!LO:N:vis=0	!LO:N:vis=0
16r	.	.	8aa\L	.	8dd\L 8ccc\	.	16A\	o-	-ru-	8.cc\	sae-	-ca-	2.r	2.r
16D\LL	.	.	.	.	.	.	16A\	-pe-	-sa-	.	.	.	.	.
16F#X\	.	.	8aa\	.	8dd\ 8ccc\	.	8A\	-rum	-lem.	.	.	.	.	.
16D\	.	.	.	.	.	.	.	.	.	16cc\	-cu-	.	.	.
!	!	!	!	!	!	!	!	!	!	!	!	!	!	!LO:TX:a:t=2
16A\	.	.	8aa\J	.	8dd\J 8ccc\	.	8A\	su-	Je-	8cc\	-li	-tur	.	.
16F#\JJ	.	.	.	.	.	.	.	.	.	.	.	.	.	.
*	*	*	*	*	*Xtremolo	*	*	*	*	*	*	*	*	*
=24	=24	=24	=24	=24	=24	=24	=24	=24	=24	=24	=24	=24	=24	=24
!	!	!	!	!	!	!	!	!	!	!LO:PB:g=original	!	!	!	!
16D\LL	.	.	4.aa\	.	4.dd\ 4.ccc\	.	4A\	-o-	-ru-	8.cc\	sae-	ci-	.	.
32E\L	.	.	.	.	.	.	.	.	.	.	.	.	.	.
32F#X\JJJ	.	.	.	.	.	.	.	.	.	.	.	.	.	.
32G\LLL	.	.	.	.	.	.	.	.	.	.	.	.	.	.
32A\	.	.	.	.	.	.	.	.	.	.	.	.	.	.
32B\	.	.	.	.	.	.	.	.	.	16cc\	-cu-	-vi-	.	.
32c\JJJ	.	.	.	.	.	.	.	.	.	.	.	.	.	.
8d\	.	.	.	.	.	.	8A\	-rum	-sa-	8cc\	-li:	-tas:	.	.
=25	=25	=25	=25	=25	=25	=25	=25	=25	=25	=25	=25	=25	=25	=25
!!pagebreak:original
16r	.	.	16gg\LL	.	16bb\LL	.	8G\	an-	-lem,	8b\	fac-	cu-	8r	8r
16G\LL	.	.	16dd\	.	16dd\	.	.	.	.	.	.	.	.	.
16B\	.	.	16gg\	.	16bb\	.	8G\	-nun-	qui	16b\	-ta	-jus	8g/L	8dd\L
16G\	.	.	16dd\	.	16dd\	.	.	.	.	16b\	in	par-	.	.
16d\	.	.	16gg\	.	16bb\	.	8G\	-ti-	ae-	16b\	ve-	-ti-	8g/J	8dd\J
16B\JJ	.	.	16dd\JJ	.	16dd\JJ	.	.	.	.	16b\	-ri-	-ci-	.	.
=26	=26	=26	=26	=26	=26	=26	=26	=26	=26	=26	=26	=26	=26	=26
!LO:TX:t=P:problem=mixed beam	!	!	!	!	!	!	!	!	!	!	!	!	!	!
16GLL\	.	.	4.gg\	.	4.dd\ 4.bb\	.	4G\	-a-	-di-	4b\	-ta-	-pa-	4.g/	4.dd\
16GG/	.	.	.	.	.	.	.	.	.	.	.	.	.	.
16BB/	.	.	.	.	.	.	.	.	.	.	.	.	.	.
16DJ/	.	.	.	.	.	.	.	.	.	.	.	.	.	.
8GJ/	.	.	.	.	.	.	8G\	-bit	-fi-	8b\	-te	-ci-	.	.
=27	=27	=27	=27	=27	=27	=27	=27	=27	=27	=27	=27	=27	=27	=27
!	!	!	!	!	!	!	!	!	!	!	!	!	!LO:PB:g=original	!
!	!	!	!	!	!	!	!	!	!	!	!	!	!LO:N:vis=0	!LO:N:vis=0
16r	.	.	16aa\LL	.	16ccc\LL	.	8A\	po-	-ca-	8cc\	et	-o	2.r	2.r
16D\LL	.	.	16dd\	.	16dd\	.	.	.	.	.	.	.	.	.
16F#X\	.	.	16ff#X\	.	16ccc\	.	8A\	-pu-	-tur	8cc\	ae-	e-	.	.
16D\	.	.	16dd\	.	16dd\	.	.	.	.	.	.	.	.	.
16A\	.	.	16ff#\	.	16ccc\	.	8A\	-lo	ci-	8cc\	-qui-	-jus	.	.
16F#\JJ	.	.	16dd\JJ	.	16dd\JJ	.	.	.	.	.	.	.	.	.
=28	=28	=28	=28	=28	=28	=28	=28	=28	=28	=28	=28	=28	=28	=28
!LO:PB:g=original	!	!	!	!	!	!	!	!	!	!	!	!	!	!
16D\LL	.	.	4.dd\ 4.aa\	.	4.dd\ 4.ccc\	.	[8.A\	su-	.	4cc\	-ta-	e-	.	.
32E\L	.	.	.	.	.	.	.	.	.	.	.	.	.	.
32F#X\JJJ	.	.	.	.	.	.	.	.	.	.	.	.	.	.
32G\LLL	.	.	.	.	.	.	.	.	.	.	.	.	.	.
32A\	.	.	.	.	.	.	.	.	.	.	.	.	.	.
32B\	.	.	.	.	.	.	16A\]	.	-vi-	.	.	.	.	.
32c\JJJ	.	.	.	.	.	.	.	.	.	.	.	.	.	.
8d\	.	.	.	.	.	.	8A\	-o:	-tas:	8cc\	-te.	-jus	.	.
=29	=29	=29	=29	=29	=29	=29	=29	=29	=29	=29	=29	=29	=29	=29
!	!	!	!	!	!	!	!	!	!	!LO:N:vis=00	!	!	!	!
4G\	.	.	16.gg\LL	.	16.bb\LL	.	1.r	.	.	1.r	.	.	4g/	4dd\
!	!	!	!	!	!	!	!	!	!	!LO:TX:a:t=8	!	!	!	!
.	.	.	32bb\K	.	32ddd\K	.	.	.	.	.	.	.	.	.
.	.	.	16.aa\	.	16.ccc\	.	.	.	.	.	.	.	.	.
.	.	.	32gg\K	.	32bb\K	.	.	.	.	.	.	.	.	.
8r	.	.	16.ff#X\	.	16.aa\	.	.	.	.	.	.	.	8r	8r
.	.	.	32ee\JJk	.	32gg\JJk	.	.	.	.	.	.	.	.	.
=30	=30	=30	=30	=30	=30	=30	=30	=30	=30	=30	=30	=30	=30	=30
!	!	!	!LO:PB:g=original	!	!	!	!	!	!	!	!	!	!	!LO:PB:g=original
4d\	#	.	16.dd\LL	.	16.ff#X\LL	.	.	.	.	.	.	.	4.r	4.r
.	.	.	32ee\K	.	32gg\K	.	.	.	.	.	.	.	.	.
.	.	.	16.ff#X\	.	16.aa\	.	.	.	.	.	.	.	.	.
!	!	!	!	!	!	!	!	!	!	!	!	!	!LO:TX:a:t=1	!LO:TX:a:t=1
.	.	.	32gg\K	.	32bb\K	.	.	.	.	.	.	.	.	.
8r	.	.	16.aa\	.	16.ccc\	.	.	.	.	.	.	.	.	.
.	.	.	32ff#\JJk	.	32aa\JJk	.	.	.	.	.	.	.	.	.
=31	=31	=31	=31	=31	=31	=31	=31	=31	=31	=31	=31	=31	=31	=31
4G\	.	.	16.gg\LL	.	16.bb\LL	.	.	.	.	.	.	.	4g/	4dd\
.	.	.	32bb\K	.	32ddd\K	.	.	.	.	.	.	.	.	.
.	.	.	16.aa\	.	16.ccc\	.	.	.	.	.	.	.	.	.
.	.	.	32gg\K	.	32bb\K	.	.	.	.	.	.	.	.	.
8r	.	.	16.ff#X\	.	16aa\	.	.	.	.	.	.	.	8r	8r
.	.	.	.	.	16gg\JJ	.	.	.	.	.	.	.	.	.
.	.	.	32ee\JJk	.	.	.	.	.	.	.	.	.	.	.
=32	=32	=32	=32	=32	=32	=32	=32	=32	=32	=32	=32	=32	=32	=32
!!pagebreak:original
!	!	!	!	!	!LO:PB:g=original	!	!	!	!	!	!	!	!	!
4D\	#	.	16.dd\LL	.	16.ff#X\LL	.	.	.	.	.	.	.	4.r	4.r
.	.	.	32ee\K	.	32gg\K	.	.	.	.	.	.	.	.	.
.	.	.	16.ff#X\	.	16.aa\	.	.	.	.	.	.	.	.	.
!	!	!	!	!	!	!	!	!	!	!	!	!	!	!LO:TX:a:t=1
.	.	.	32gg\K	.	32bb\K	.	.	.	.	.	.	.	.	.
8r	.	.	16.aa\	.	16.ccc\	.	.	.	.	.	.	.	.	.
.	.	.	32ff#\JJk	.	32aa\JJk	.	.	.	.	.	.	.	.	.
=33	=33	=33	=33	=33	=33	=33	=33	=33	=33	=33	=33	=33	=33	=33
!	!	!	!	!	!	!	!LO:N:vis=00	!	!	!LO:N:vis=00	!	!	!	!
4G\	.	.	16.dd\LL	.	16.bb\LL	.	1.r	.	.	1.r	.	.	4g/	4dd\
.	.	.	32gg\K	.	32bb\K	.	.	.	.	.	.	.	.	.
.	.	.	16.ff#X\	.	16.aa\	.	.	.	.	.	.	.	.	.
.	.	.	32ee\K	.	32gg\K	.	.	.	.	.	.	.	.	.
8r	.	.	16.dd#X\	.	16.ff#X\	.	.	.	.	.	.	.	8r	8r
.	.	.	32cc#X\JJk	.	32ee\JJk	.	.	.	.	.	.	.	.	.
=34	=34	=34	=34	=34	=34	=34	=34	=34	=34	=34	=34	=34	=34	=34
!	!	!	!	!	!	!	!	!	!	!	!	!	!LO:N:vis=00	!LO:N:vis=00
4B\	#	.	16.b\LL	.	16.dd#X\LL	.	.	.	.	.	.	.	1.r	1.r
.	.	.	32cc#X\K	.	32ee\K	.	.	.	.	.	.	.	.	.
.	.	.	16.dd#X\	.	16.ff#X\	.	.	.	.	.	.	.	.	.
!	!	!	!	!	!	!	!	!	!	!	!	!	!LO:TX:a:t=11	!LO:TX:a:t=11
.	.	.	32ee\K	.	32gg\K	.	.	.	.	.	.	.	.	.
8r	.	.	16.ff#X\	.	16.aa\	.	.	.	.	.	.	.	.	.
.	.	.	32dd#\JJk	.	32ff#\JJk	.	.	.	.	.	.	.	.	.
=35	=35	=35	=35	=35	=35	=35	=35	=35	=35	=35	=35	=35	=35	=35
!	!	!	!LO:PB:g=original	!	!	!	!	!	!	!	!	!	!	!
4E\	7	.	16.ee\LL	.	16.gg\LL	.	.	.	.	.	.	.	.	.
.	.	.	32ee\K	.	32gg\K	.	.	.	.	.	.	.	.	.
.	.	.	16.dd\	.	16.ffn\	.	.	.	.	.	.	.	.	.
.	.	.	32cc\K	.	32ee\K	.	.	.	.	.	.	.	.	.
8r	.	.	16.b\	.	16.dd\	.	.	.	.	.	.	.	.	.
.	.	.	32a/JJk	.	32cc\JJk	.	.	.	.	.	.	.	.	.
=36	=36	=36	=36	=36	=36	=36	=36	=36	=36	=36	=36	=36	=36	=36
4G\	5	.	16.g/LL	.	16.b\LL	.	.	.	.	.	.	.	.	.
.	.	.	32a/K	.	32cc\K	.	.	.	.	.	.	.	.	.
.	.	.	16.b\	.	16.dd\	.	.	.	.	.	.	.	.	.
.	.	.	32cc\JJk	.	32ee\K	.	.	.	.	.	.	.	.	.
8r	.	.	16.dd\LL	.	16.ff\	.	.	.	.	.	.	.	.	.
.	.	.	32b\JJk	.	32dd\JJk	.	.	.	.	.	.	.	.	.
=37	=37	=37	=37	=37	=37	=37	=37	=37	=37	=37	=37	=37	=37	=37
!LO:TX:t=P:problem=p zapisane jako pia	!	!LO:DY:b	!LO:TX:t=P:problem=p zapisane jako pia	!LO:DY:b	!LO:TX:t=P:problem=p zapisane jako pia	!LO:DY:b	!	!	!	!	!	!	!	!
16C/LL	.	p	8r	p	4.ee\	p	16c\	In-	as-	8ee\	San-	Pro-	.	.
16BB/	.	.	.	.	.	.	16c\	-tel-	-cen-	.	.	.	.	.
16C/	.	.	8g/L	.	.	.	8c\	-lec-	-de-	8ee\	-ctum	-pter	.	.
16D\	.	.	.	.	.	.	.	.	.	.	.	.	.	.
16E\	.	.	8g/J	.	.	.	8c\	-tus	-runt	16ee\	et	frat-	.	.
16F#X\JJ	.	.	.	.	.	.	.	.	.	16ee\	ter-	-res	.	.
=38	=38	=38	=38	=38	=38	=38	=38	=38	=38	=38	=38	=38	=38	=38
!!pagebreak:original
!	!	!	!	!	!	!	!LO:PB:g=original	!	!	!	!	!	!	!
!	!	!	!	!	!	!	!	!	!	!	!	!	!LO:N:vis=00	!LO:N:vis=00
16G\LL	.	.	8r	.	4.dd\	.	16B\	in-	tri-	8.dd\	-ri-	me-	1.r	1.r
16F#X\	.	.	.	.	.	.	16B\	-tel-	-bus	.	.	.	.	.
*	*	*	*	*	*	*	*	*	*ij	*	*	*	*	*
16G\	.	.	8d/L 8b/	.	.	.	8B\	-lec-	tri-	.	.	.	.	.
16A\	.	.	.	.	.	.	.	.	.	16dd\	-bi-	.	.	.
16B\	.	.	8d/J 8b/	.	.	.	8B\	-tus	-bus	8dd\	-le	-os	.	.
*	*	*	*	*	*	*	*	*	*Xij	*	*	*	*	*
16G\JJ	.	.	.	.	.	.	.	.	.	.	.	.	.	.
=39	=39	=39	=39	=39	=39	=39	=39	=39	=39	=39	=39	=39	=39	=39
!	!	!	!	!	!	!	!	!	!	!LO:LB:g=original	!	!	!	!
16A\LL	4 3	.	8r	.	4.d/ 4.cc/	.	4A\	bo-	Do-	4cc\	no-	frat-	.	.
16G\	.	.	.	.	.	.	.	.	.	.	.	.	.	.
16F#X\	_ _	.	8f#X/L 8a/	.	.	.	.	.	.	.	.	.	.	.
16E\JJ	.	.	.	.	.	.	.	.	.	.	.	.	.	.
16D\LL	.	.	8f#/J 8a/	.	.	.	8A\	-nus	-mi-	8cc\	-men	-res	.	.
32E\L	.	.	.	.	.	.	.	.	.	.	.	.	.	.
32F#\JJJ	.	.	.	.	.	.	.	.	.	.	.	.	.	.
=40	=40	=40	=40	=40	=40	=40	=40	=40	=40	=40	=40	=40	=40	=40
!	!	!	!	!	!LO:PB:g=original	!	!	!	!	!	!	!	!	!
4G\	.	.	4d/ 4b/	.	(>16b\LL	.	8G\	bo-	-ni:	8b\	e-	me-	.	.
.	.	.	.	.	16cc\	.	.	.	.	.	.	.	.	.
.	.	.	.	.	16cc#X\)	.	8B\	-nus	_	8dd\	-jus	-os	.	.
.	.	.	.	.	(>16dd\	.	.	.	.	.	.	.	.	.
8r	.	.	8r	.	16ee\	.	8r	.	.	8r	.	.	.	.
.	.	.	.	.	16dd\JJ)	.	.	.	.	.	.	.	.	.
=41	=41	=41	=41	=41	=41	=41	=41	=41	=41	=41	=41	=41	=41	=41
16A\LL	4 3	.	8r	.	4.d/ 4.ccn/	.	4A\	fa-	tes-	4cc\	no-	Pro-	.	.
16G\	.	.	.	.	.	.	.	.	.	.	.	.	.	.
16F#X\	.	.	8f#X/L 8a/	.	.	.	.	.	.	.	.	.	.	.
16E\JJ	_ _	.	.	.	.	.	.	.	.	.	.	.	.	.
16D\LL	.	.	8f#/J 8a/	.	.	.	8A\	-ci-	-ti-	8cc\	-men	-pter	.	.
32E\L	.	.	.	.	.	.	.	.	.	.	.	.	.	.
32F#\JJJ	.	.	.	.	.	.	.	.	.	.	.	.	.	.
=42	=42	=42	=42	=42	=42	=42	=42	=42	=42	=42	=42	=42	=42	=42
!	!	!	!	!	!	!	!	!	!	!	!	!	!LO:N:vis=0	!LO:N:vis=0
4G\	.	.	4d/	.	(>16b\LL	.	16G\	-en-	-mo-	8b\	e-	frat-	2.r	2.r
.	.	.	.	.	16cc\	.	16G\	-ti-	-ni-	.	.	.	.	.
.	.	.	.	.	16cc#X\	.	8B\	-bus	-um	8dd\	-jus	-res	.	.
.	.	.	.	.	16dd\	.	.	.	.	.	.	.	.	.
8r	.	.	8r	.	16ee\	.	8r	.	.	8r	.	.	.	.
.	.	.	.	.	16dd\JJ)	.	.	.	.	.	.	.	.	.
=43	=43	=43	=43	=43	=43	=43	=43	=43	=43	=43	=43	=43	=43	=43
!LO:PB:g=original	!	!	!	!	!	!	!	!	!	!	!	!	!	!
16D\LL	7 #	.	8r	.	4.d/ 4.ccn/	.	4A\	e-	Is-	4cc\	no-	frat-	.	.
16C#X/	.	.	.	.	.	.	.	.	.	.	.	.	.	.
16D\	.	.	8f#X/L 8a/	.	.	.	.	.	.	.	.	.	.	.
16C#/JJ	.	.	.	.	.	.	.	.	.	.	.	.	.	.
16D\LL	_	.	8f#/J 8a/	.	.	.	8A\	-um	-ra-	8cc\	-men	-res	.	.
32E\L	.	.	.	.	.	.	.	.	.	.	.	.	.	.
32F#X\JJJ	.	.	.	.	.	.	.	.	.	.	.	.	.	.
=44	=44	=44	=44	=44	=44	=44	=44	=44	=44	=44	=44	=44	=44	=44
!!pagebreak:original
!	!	!	!LO:PB:g=original	!	!	!	!	!	!	!	!	!	!	!
4G\	.	.	4d/	.	16b\LL	.	8G\	e-	-el	8b\	e-	me-	4.r	4.r
.	.	.	.	.	16gg\	.	.	.	.	.	.	.	.	.
.	.	.	.	.	16ff#X\	.	8G\	-um:	_	8b\	-jus:	-os	.	.
.	.	.	.	.	16gg\	.	.	.	.	.	.	.	.	.
8r	.	.	8r	.	16bb\	.	8r	.	.	8r	.	.	.	.
.	.	.	.	.	16gg\JJ	.	.	.	.	.	.	.	.	.
=45	=45	=45	=45	=45	=45	=45	=45	=45	=45	=45	=45	=45	=45	=45
16r	7 n	.	8r	.	4.g\ 4.ffn\	.	8d\L	lau-	ad	8ffn\	i-	et	8r	8r
16G\LL	.	.	.	.	.	.	.	.	.	.	.	.	.	.
16B\	_ _	.	8d/L 8b/	.	.	.	8B\	.	con-	16ff\	-ni-	pro-	8dd\L	8ff\L
16G\	.	.	.	.	.	.	.	.	.	16ff\	-ti-	-xi-	.	.
16A\	.	.	8d/J 8b/	.	.	.	8G\J	.	-fi-	8ff\	-um	-mos	8dd\J	8ff\J
16B\JJ	.	.	.	.	.	.	.	.	.	.	.	.	.	.
=46	=46	=46	=46	=46	=46	=46	=46	=46	=46	=46	=46	=46	=46	=46
4c\ 4A\	.	.	4g/	.	16ee\LL	.	16.c\	-da-	-ten-	4.r	.	.	4cc\	4ee\
.	.	.	.	.	16ff\	.	.	.	.	.	.	.	.	.
.	.	.	.	.	.	.	32c\	-ti-	.	.	.	.	.	.
.	.	.	.	.	16ff#X\	.	8c\	-o	-dum	.	.	.	.	.
.	.	.	.	.	16gg\	.	.	.	.	.	.	.	.	.
8r	.	.	8r	.	16aa\	.	8r	.	.	.	.	.	8r	8r
.	.	.	.	.	16gg\JJ	.	.	.	.	.	.	.	.	.
=47	=47	=47	=47	=47	=47	=47	=47	=47	=47	=47	=47	=47	=47	=47
!	!	!	!	!	!	!	!LO:PB:g=original	!	!	!	!	!	!	!
16r	.	.	8r	.	4.g\ 4.ffn\	.	8d\L	ma-	No-	4ff\	sa-	me-	8r	8r
16G\LL	7	.	.	.	.	.	.	.	.	.	.	.	.	.
16B\	.	.	8d/L 8b/	.	.	.	8B\J	.	-mi-	.	.	.	8dd\L	8ff\L
16G\	.	.	.	.	.	.	.	.	.	.	.	.	.	.
16A\	.	.	8d/J 8b/	.	.	.	8G\	-net	-ne	8ff\	-pi-	-os,	8dd\J	8ff\J
16B\JJ	.	.	.	.	.	.	.	.	.	.	.	.	.	.
=48	=48	=48	=48	=48	=48	=48	=48	=48	=48	=48	=48	=48	=48	=48
!	!	!	!	!	!	!	!	!	!	!LO:PB:g=original	!	!	!	!
!	!	!	!LO:TX:t=P:problem=mixed beam	!	!LO:TX:t=P:problem=mixed beam	!	!	!	!	!	!	!	!LO:TX:t=P:problem=mixed beam	!LO:TX:t=P:problem=mixed beam
!	!	!	!	!	!LO:TX:t=P:problem=f zapisane jako for	!LO:DY:b	!	!	!	!	!	!	!	!
4c\ 4F\	.	.	16ccLL\	.	16ee\LL	f	8c\	ma-	Domi-	16ee\	-en-	lo-	8ccL\	8eeL\
.	.	.	16c/	.	16e/	.	.	.	.	16ee\	-ti-	-que-	.	.
.	.	.	16d/	.	16f/	.	8c\	-net	-ni	8cc\	-ae	-bar	8e/	8e/
.	.	.	16e/	.	16g/	.	.	.	.	.	.	.	.	.
8r	.	.	16f/	.	16a/	.	8r	.	.	8r	.	.	8gJ/	8gJ/
.	.	.	16dJJ/	.	16b\JJ	.	.	.	.	.	.	.	.	.
=49	=49	=49	=49	=49	=49	=49	=49	=49	=49	=49	=49	=49	=49	=49
!	!	!	!	!	!LO:PB:g=original	!	!	!	!	!	!	!	!	!
!LO:TX:t=P:problem=mixed beam	!	!	!	!	!	!	!	!	!	!	!	!	!	!
8CL\	.	.	4e/	.	4cc\	.	4.r	.	.	4cc\	ti-	pa-	4e/	4cc\
16EL\	.	.	.	.	.	.	.	.	.	.	.	.	.	.
16C\	.	.	.	.	.	.	.	.	.	.	.	.	.	.
.	.	.	8qg/	.	8qee/	.	.	.	.	.	.	.	.	.
16G\	.	.	16f/LL	.	16dd\LL	.	.	.	.	8dd\	-mor	-cem	8r	8r
16GGJJ/	.	.	32e/L	.	32cc\L	.	.	.	.	.	.	.	.	.
.	.	.	32f/JJJ	.	32dd\JJJ	.	.	.	.	.	.	.	.	.
=50	=50	=50	=50	=50	=50	=50	=50	=50	=50	=50	=50	=50	=50	=50
4c\	.	.	8g/L	.	8ee\L	.	8c\	in	No-	8ee\L	Do-	de	4.r	4.r
!	!	!	!	!	!	!	!	!	!	!	!	!	!LO:TX:a:t=1	!
.	.	.	8a/	.	8ff\	.	8c\	sae-	.	8ff\J	.	.	.	.
8G\	.	.	8G/J 8f/	.	8dd\J	.	8G\	-cu-	-mi-	8dd\	-mi-	de	.	.
=51	=51	=51	=51	=51	=51	=51	=51	=51	=51	=51	=51	=51	=51	=51
!!pagebreak:original
!	!	!	!	!	!	!	!	!	!	!	!	!	!LO:PB:g=original	!
!	!	!	!	!	!	!	!	!	!	!	!	!	!LO:TX:t=P:problem=mixed beam	!LO:TX:t=P:problem=mixed beam
16r	.	.	4G/ 4e/	.	4cc\	.	4C/	-lum	-ni	4cc\	-ni	te	8ccL\	8ccL\
16c\LL	.	.	.	.	.	.	.	.	.	.	.	.	.	.
16G\	.	.	.	.	.	.	.	.	.	.	.	.	8g/	8g/
16c\	.	.	.	.	.	.	.	.	.	.	.	.	.	.
16E\	.	.	8r	.	8r	.	8r	.	.	8r	.	.	8eJ/	8eJ/
16G\JJ	.	.	.	.	.	.	.	.	.	.	.	.	.	.
=52	=52	=52	=52	=52	=52	=52	=52	=52	=52	=52	=52	=52	=52	=52
!	!	!	!	!	!	!	!	!	!	!LO:N:vis=0	!	!	!	!
4C/	.	.	16c/LL	.	16e/LL	.	4.r	.	.	2.r	.	.	4c/	4c/
.	.	.	16e/	.	16g/JJ	.	.	.	.	.	.	.	.	.
!	!	!	!	!	!	!	!	!	!	!LO:TX:a:t=2	!	!	!	!
.	.	.	16f/	.	16a/LL	.	.	.	.	.	.	.	.	.
.	.	.	16g/	.	16b\	.	.	.	.	.	.	.	.	.
8r	.	.	16a/	.	16cc\	.	.	.	.	.	.	.	8r	8r
.	.	.	16b\JJ	.	16dd\JJ	.	.	.	.	.	.	.	.	.
=53	=53	=53	=53	=53	=53	=53	=53	=53	=53	=53	=53	=53	=53	=53
!	!	!	!LO:PB:g=original	!	!	!	!	!	!	!	!	!	!	!
!	!	!	!	!	!	!	!	!	!	!	!	!	!LO:N:vis=0	!LO:N:vis=0
16C/LL	.	.	4cc\	.	4ee\	.	8E\	sae-	no-	.	.	.	2.r	2.r
16E\	.	.	.	.	.	.	.	.	.	.	.	.	.	.
16F\	.	.	.	.	.	.	8E\	-cu-	-mi-	.	.	.	.	.
16G\	.	.	.	.	.	.	.	.	.	.	.	.	.	.
!	!	!	!	!	!	!	!	!	!	!	!	!	!LO:TX:a:t=2	!LO:TX:a:t=2
.	.	.	8qee/	.	8qgg/	.	.	.	.	.	.	.	.	.
16A\	.	.	16dd\LL	.	16ff\LL	.	8F\	-lum	-ni	.	.	.	.	.
16B\JJ	.	.	32cc\L	.	32ee\L	.	.	.	.	.	.	.	.	.
.	.	.	32dd\JJJ	.	32ff\JJJ	.	.	.	.	.	.	.	.	.
=54	=54	=54	=54	=54	=54	=54	=54	=54	=54	=54	=54	=54	=54	=54
4c\	.	.	8ee\L	.	8gg\L	.	8G\L	sae-	Do-	8ee\L	Do-	de	.	.
.	.	.	8ff\	.	8aa\	.	8A\J	.	.	8ff\J	.	.	.	.
8G\	7	.	8dd\J	.	8ff\J	.	8F\	-cu-	-mi-	8dd\	-mi-	de	.	.
=55	=55	=55	=55	=55	=55	=55	=55	=55	=55	=55	=55	=55	=55	=55
!	!	!	!	!	!	!	!	!	!	!	!	!	!LO:TX:t=P:problem=mixed beam	!
16r	.	.	4cc\	.	4cc\ 4ee\	.	8E\	-li.	-ni.	4.cc\	-ni.	te:	8ccL\	8ee\L
16c\LL	.	.	.	.	.	.	.	.	.	.	.	.	.	.
16G\	.	.	.	.	.	.	4r	.	.	.	.	.	8g/	8cc\
16c\	.	.	.	.	.	.	.	.	.	.	.	.	.	.
16E\	.	.	8r	.	8r	.	.	.	.	.	.	.	8eJ/	8g/J
16G\JJ	.	.	.	.	.	.	.	.	.	.	.	.	.	.
=56	=56	=56	=56	=56	=56	=56	=56	=56	=56	=56	=56	=56	=56	=56
!LO:PB:g=original	!	!	!	!	!	!	!	!	!	!	!	!	!LO:TX:t=P:problem=mixed beam	!LO:TX:t=P:problem=mixed beam
!LO:TX:a:t=1.Vol.	!	!	!	!	!	!	!	!	!	!	!	!	!	!
16r	.	.	8cc\L	.	8g\L 8ee\	.	8C/L	Si-	.	8ee\	Glo-	.	8cL/	8eL/
16C/LL	.	.	.	.	.	.	.	.	.	.	.	.	.	.
16E\	.	.	8cc\	.	8g\ 8ee\	.	8E\J	.	.	8ee\	-ri-	.	8cc\	8ee\
16C/	.	.	.	.	.	.	.	.	.	.	.	.	.	.
16G\	.	.	8cc\J	.	8g\J 8ee\	.	8G\	-cut	.	8ee\	-a	.	8ccJ\	8eeJ\
16E\JJ	.	.	.	.	.	.	.	.	.	.	.	.	.	.
=57	=57	=57	=57	=57	=57	=57	=57	=57	=57	=57	=57	=57	=57	=57
!	!	!	!	!	!	!	!	!	!	!	!	!	!	!LO:PB:g=original
16C/LL	.	.	4.cc\	.	4.g\ 4.ee\	.	4c\	e-	.	4ee\	Pat-	.	4.cc\	4.ee\
32D\L	.	.	.	.	.	.	.	.	.	.	.	.	.	.
32E\JJJ	.	.	.	.	.	.	.	.	.	.	.	.	.	.
32F\LLL	.	.	.	.	.	.	.	.	.	.	.	.	.	.
32G\	.	.	.	.	.	.	.	.	.	.	.	.	.	.
32A\	.	.	.	.	.	.	.	.	.	.	.	.	.	.
32B\JJJ	.	.	.	.	.	.	.	.	.	.	.	.	.	.
8c\	.	.	.	.	.	.	8c\	-rat	.	8ee\	-ri	.	.	.
=58	=58	=58	=58	=58	=58	=58	=58	=58	=58	=58	=58	=58	=58	=58
!	!	!	!	!	!	!	!LO:TX:a:t=1.Vol.	!	!	!	!	!	!	!
16r	.	.	8dd\L	.	8g\L 8ff\	.	8d\L	in	.	8ff\	Pat-	.	8r	8r
16GG/LL	7	.	.	.	.	.	.	.	.	.	.	.	.	.
16BB/	.	.	8dd\	.	8g\ 8ff\	.	8d\J	.	.	8ff\	-ri,	.	8dd\L	8ff\L
16GG/	.	.	.	.	.	.	.	.	.	.	.	.	.	.
16D\	.	.	8dd\J	.	8g\J 8ff\	.	8d\	prin-	.	8ff\	et	.	8dd\J	8ff\J
16BB/JJ	.	.	.	.	.	.	.	.	.	.	.	.	.	.
=59	=59	=59	=59	=59	=59	=59	=59	=59	=59	=59	=59	=59	=59	=59
!!pagebreak:original
!	!	!	!	!	!	!	!LO:TX:a:t=P:problem=takty 59-60 zapisane powtórką	!	!	!	!	!	!	!
16GG/LL	.	.	4.dd\	.	4.g\ 4.ff\	.	8d\Lyy	-ci-	.	8.ff\	Fi-	.	4.dd\	4.ff\
32AA/L	.	.	.	.	.	.	.	.	.	.	.	.	.	.
32BB/JJJ	.	.	.	.	.	.	.	.	.	.	.	.	.	.
32C/LLL	.	.	.	.	.	.	8d\Jyy	-pi-	.	.	.	.	.	.
32D\	.	.	.	.	.	.	.	.	.	.	.	.	.	.
32E\	.	.	.	.	.	.	.	.	.	16ff\	-li-	.	.	.
32F#X\JJJ	.	.	.	.	.	.	.	.	.	.	.	.	.	.
8G\	.	.	.	.	.	.	8dyy\	-o,	.	8ff\	-o,	.	.	.
=60	=60	=60	=60	=60	=60	=60	=60	=60	=60	=60	=60	=60	=60	=60
!LO:TX:a:t=P:problem=takty 56-59 zapisane powtórką	!	!	!	!LO:PB:g=original	!	!LO:PB:g=original	!	!	!	!	!	!	!	!
!	!	!	!	!	!	!	!LO:TX:a:t=2.Vol.	!	!	!	!	!	!	!
16ryy	.	.	16ccLL\	.	(>16ee\LL	.	8c\	et	.	4ee\	et	.	8cc\L	8ee\L
16C/LLyy	.	.	16g/JJ	.	16g/JJ)	.	.	.	.	.	.	.	.	.
16Eyy\	.	.	16e/LL	.	(>16ee\LL	.	8c\	nunc,	.	.	.	.	8g/	8ee\
16Cyy/	.	.	16g/JJ	.	16g/JJ)	.	.	.	.	.	.	.	.	.
16Gyy\	.	.	16ccLL\	.	(>16ee\LL	.	8c\	et	.	8ee\	Spi-	.	8cc\J	8ee\J
16E\JJyy	.	.	16g/JJ	.	16g/JJ)	.	.	.	.	.	.	.	.	.
=61	=61	=61	=61	=61	=61	=61	=61	=61	=61	=61	=61	=61	=61	=61
16C/LLyy	.	.	4.g\ 4.cc\	.	4.g\ 4.ee\	.	8c\	sem-	.	8ee\	-ri-	.	4.cc\	4.ee\
32D\Lyy	.	.	.	.	.	.	.	.	.	.	.	.	.	.
32E\JJJyy	.	.	.	.	.	.	.	.	.	.	.	.	.	.
32F\LLLyy	.	.	.	.	.	.	8c\	-per,	.	8ee\	-tu-	.	.	.
32Gyy\	.	.	.	.	.	.	.	.	.	.	.	.	.	.
32Ayy\	.	.	.	.	.	.	.	.	.	.	.	.	.	.
32B\JJJyy	.	.	.	.	.	.	.	.	.	.	.	.	.	.
8cyy\	.	.	.	.	.	.	8r	.	.	8ee\	-i	.	.	.
=62	=62	=62	=62	=62	=62	=62	=62	=62	=62	=62	=62	=62	=62	=62
!	!	!	!	!	!LO:TX:t=P:problem=mixed beam	!	!	!	!	!	!	!	!	!
!	!	!	!	!	!	!	!	!	!	!LO:TX:a:t=1.Vol.	!	!	!	!
16ryy	.	.	16dd\LL	.	(>16ff\LL	.	8d\	et	.	4ff\	San-	.	8dd\L	8ff\L
16GG/LLyy	.	.	16b\	.	16g/JJ)	.	.	.	.	.	.	.	.	.
!	!	!	!	!	!LO:TX:t=P:problem=mixed beam	!	!	!	!	!	!	!	!	!
16BByy/	.	.	16g/	.	(>16ff\LL	.	8d\	nunc,	.	.	.	.	8g/	8ff\
16GGyy/	.	.	16b\	.	16g/JJ)	.	.	.	.	.	.	.	.	.
!	!	!	!	!	!LO:TX:t=P:problem=mixed beam	!	!	!	!	!	!	!	!	!
16Dyy\	.	.	16dd\	.	(>16ff\LL	.	8d\	et	.	8ff\	-cto	.	8dd\J	8ff\J
16BB/JJyy	.	.	16b\JJ	.	16g/JJ)	.	.	.	.	.	.	.	.	.
=63	=63	=63	=63	=63	=63	=63	=63	=63	=63	=63	=63	=63	=63	=63
!	!	!	!	!	!	!	!	!	!	!LO:TX:a:t=P:problem=takty 62-63 zapisane powtórką	!	!	!	!
16GG/LLyy	.	.	4.g/ 4.dd/	.	4.g\ 4.ff\	.	8d\	sem-	.	4ffyy\	San-	.	4.dd\	4.ff\
32AA/Lyy	.	.	.	.	.	.	.	.	.	.	.	.	.	.
32BB/JJJyy	.	.	.	.	.	.	.	.	.	.	.	.	.	.
32C/LLLyy	.	.	.	.	.	.	8d\	-per,	.	.	.	.	.	.
32Dyy\	.	.	.	.	.	.	.	.	.	.	.	.	.	.
32Eyy\	.	.	.	.	.	.	.	.	.	.	.	.	.	.
32F#X\JJJyy	.	.	.	.	.	.	.	.	.	.	.	.	.	.
8Gyy\	.	.	.	.	.	.	8r	.	.	8ffyy\	-cto,	.	.	.
!	!	!	!	!	!	!	!	!	!	!LO:TX:a:t=2.Vol.	!	!	!	!
=64	=64	=64	=64	=64	=64	=64	=64	=64	=64	=64	=64	=64	=64	=64
!LO:TX:a:t=1.Vol.	!	!	!LO:PB:g=original	!	!	!	!LO:N:vis=00	!	!	!LO:N:vis=00	!	!	!	!
4c\	.	.	16.cc\LL	.	16.ee\LL	.	1.r	.	.	1.r	.	.	4cc\	4ee\
.	.	.	32ee\K	.	32gg\K	.	.	.	.	.	.	.	.	.
!	!	!	!	!	!	!	!LO:TX:a:t=4	!	!	!LO:TX:a:t=4	!	!	!	!
.	.	.	16.dd\	.	16.ff\	.	.	.	.	.	.	.	.	.
.	.	.	32cc\K	.	32ee\K	.	.	.	.	.	.	.	.	.
8r	.	.	16.b\	.	16.dd\	.	.	.	.	.	.	.	8r	8r
.	.	.	32a/JJk	.	32cc\JJk	.	.	.	.	.	.	.	.	.
=65	=65	=65	=65	=65	=65	=65	=65	=65	=65	=65	=65	=65	=65	=65
!	!	!	!	!	!	!	!	!	!	!	!	!	!LO:N:vis=0	!LO:N:vis=0
4G\	7	.	16.g/LL	.	16.b\LL	.	.	.	.	.	.	.	2.r	2.r
.	.	.	32a/K	.	32cc\K	.	.	.	.	.	.	.	.	.
.	.	.	16.b\	.	16.dd\	.	.	.	.	.	.	.	.	.
.	.	.	32cc\K	.	32ee\K	.	.	.	.	.	.	.	.	.
8r	.	.	16.dd\	.	16.ff\	.	.	.	.	.	.	.	.	.
.	.	.	32b\JJk	.	32dd\JJk	.	.	.	.	.	.	.	.	.
=66	=66	=66	=66	=66	=66	=66	=66	=66	=66	=66	=66	=66	=66	=66
!!pagebreak:original
4C/	.	.	16.cc\LL	.	16.ee\LL	.	.	.	.	.	.	.	.	.
.	.	.	32ee\K	.	32gg\K	.	.	.	.	.	.	.	.	.
.	.	.	16.dd\	.	16.ff\	.	.	.	.	.	.	.	.	.
.	.	.	32cc\K	.	32ee\K	.	.	.	.	.	.	.	.	.
8r	.	.	16.b\	.	16.dd\	.	.	.	.	.	.	.	.	.
.	.	.	32a/JJk	.	32cc\JJk	.	.	.	.	.	.	.	.	.
=67	=67	=67	=67	=67	=67	=67	=67	=67	=67	=67	=67	=67	=67	=67
!	!	!	!	!	!LO:PB:g=original	!	!	!	!	!	!	!	!	!
4GG/	7	.	16.g/LL	.	16.b\LL	.	.	.	.	.	.	.	4.r	4.ryy
.	.	.	32a/K	.	32cc\K	.	.	.	.	.	.	.	.	.
.	.	.	16.b\	.	16.dd\	.	.	.	.	.	.	.	.	.
.	.	.	32cc\K	.	32ee\K	.	.	.	.	.	.	.	.	.
8r	.	.	16.dd\	.	16.ff\	.	.	.	.	.	.	.	.	.
.	.	.	32b\JJk	.	32dd\JJk	.	.	.	.	.	.	.	.	.
=68	=68	=68	=68	=68	=68	=68	=68	=68	=68	=68	=68	=68	=68	=68
!	!	!	!	!	!	!	!	!	!	!	!	!	!LO:PB:g=original	!
!	!	!	!	!	!	!	!	!	!	!	!	!	!LO:TX:t=P:problem=mixed beam	!
4C\	.	.	16.g/LL	.	16.ee\LL	.	8CL/	et	.	16ee\	et	.	8ccL\	8ee\L
.	.	.	.	.	.	.	.	.	.	16ee\	in	.	.	.
.	.	.	32g/K	.	32ee\K	.	.	.	.	.	.	.	.	.
.	.	.	16.f/	.	16.dd\	.	8E\J	.	.	16dd\	sae-	.	8g/	8dd\
.	.	.	.	.	.	.	.	.	.	16cc\	-cu-	.	.	.
.	.	.	32e/K	.	32cc\K	.	.	.	.	.	.	.	.	.
8G\	.	.	16.d/	.	16.b\	.	8G\	in	.	16b\LL	-la	.	8gJ/	8dd\J
.	.	.	.	.	.	.	.	.	.	16dd\JJ	.	.	.	.
.	.	.	32f/JJk	.	32dd\JJk	.	.	.	.	.	.	.	.	.
=69	=69	=69	=69	=69	=69	=69	=69	=69	=69	=69	=69	=69	=69	=69
!	!	!	!LO:PB:g=original	!	!	!	!	!	!	!	!	!	!	!
4c\	.	.	16.e/LL	.	16.cc\LL	.	16c\	sae-	.	16cc\	sae-	.	16e/LL	16cc\LL
.	.	.	.	.	.	.	16c\	-cu-	.	16ee\	-cu-	.	16c/JJ	16ee\JJ
.	.	.	32g/K	.	32ee\K	.	.	.	.	.	.	.	.	.
.	.	.	16.f/	.	16.dd\	.	4G\	-la	.	16dd\LL	-lo-	.	8e/L	8dd\L
.	.	.	.	.	.	.	.	.	.	16cc\JJ	.	.	.	.
.	.	.	32e/K	.	32cc\K	.	.	.	.	.	.	.	.	.
8G\	.	.	16.d/	.	16.b\	.	.	.	.	16b\LL	-rum.	.	8g/J	8dd\J
.	.	.	.	.	.	.	.	.	.	16dd\JJ	.	.	.	.
.	.	.	32f/JJk	.	32dd\JJk	.	.	.	.	.	.	.	.	.
=70	=70	=70	=70	=70	=70	=70	=70	=70	=70	=70	=70	=70	=70	=70
!	!	!	!LO:TX:t=P:problem=mixed beam	!	!	!	!	!	!	!	!	!	!LO:TX:t=P:problem=mixed beam	!
16C/LL	.	.	8G/L 8e/	.	8cc\L	.	8CL/	sae-	.	8cc\L	A-	.	8eL/	8cc\L
16c\	.	.	.	.	.	.	.	.	.	.	.	.	.	.
16G\	.	.	8g\ 8ee\	.	8cc\	.	8E\J	.	.	8ee\J	.	.	8ee\	8ccc\
16c\	.	.	.	.	.	.	.	.	.	.	.	.	.	.
16E\	.	.	8g\J 8ee\	.	8cc\J	.	8G\	-cu-	.	8ee\	-men	.	8eeJ\	8ccc\J
16G\JJ	.	.	.	.	.	.	.	.	.	.	.	.	.	.
=71	=71	=71	=71	=71	=71	=71	=71	=71	=71	=71	=71	=71	=71	=71
16C/LL	.	.	8cc\L	.	8cc\L	.	8c\	-lo-	.	4.ee\	A-	.	8cc\L	8ee\L
16E\	.	.	.	.	.	.	.	.	.	.	.	.	.	.
16G\	.	.	8g\ 8ee\	.	8ee\ 8ccc\	.	8G\	-rum.	.	.	.	.	8ee\	8ccc\
16E\	.	.	.	.	.	.	.	.	.	.	.	.	.	.
16G\	.	.	8g\J 8ee\	.	8ee\J 8ccc\	.	8E\	A-	.	.	.	.	8ee\J	8ccc\J
16E\JJ	.	.	.	.	.	.	.	.	.	.	.	.	.	.
=72	=72	=72	=72	=72	=72	=72	=72	=72	=72	=72	=72	=72	=72	=72
.	.	.	.	.	.	.	.	.	.	.	.	.	.	8qqccc/
4.C/	.	.	4.g\ 4.ee\	.	4.ee\ 4.ccc\	.	4.C/	-men.	.	4ee\	-men.	.	4.ee\	4.ccc\
.	.	.	.	.	.	.	.	.	.	8r	.	.	.	.
==	==	==	==	==	==	==	==	==	==	==	==	==	==	==
*-	*-	*-	*-	*-	*-	*-	*-	*-	*-	*-	*-	*-	*-	*-
!!!system-decoration: s1,s2,s3,s4,s5,s6,s7
!!!RDF**kern: > = above
!!!ENC: Leszek Kubiak
!!!END: 2020-04-02
!!!ENC: Krzysztof Stępień
!!!END: 2020-02-20
